!!!!SEGMENT: pl-kk--kk-i-277--002-010_anonim--rorate-caeli-ecce-virgo.krn
!!!cenid: 16xx:1092
!!!COM: Anonim
!!!COM-rismID: pe30004985
!!!CDT:
!!!CNT:
!!!OPR: Rorate caeli
!!!OTL: Ecce virgo
!!!OMV: 010
!!!PDT:
!!!AGN: Sacred
!!!SMS-siglum: PL-Kk
!!!SMS-shelfmark: Kk.I.277
!!!SMS-shelfwork: 002-010 M
!!!SMS-variant:
!!!SMS-altvar:
!!!NIFC-rismSourceID: 1001147188
!!!NIFC-islandoraID: pl-kk:4889
!!!URL-pdf-islandora: https://repozytorium.nifc.pl/islandora/object/pl-kk%3A4889/datastream/PDF/view
!!!URL-scan: https://polish.musicsources.pl/pl/lokalizacje/galeria/rekopisy/5895 @EN{Scan on Polish Music Sources Website} @PL{Skany w portalu Dziedzictwo Muzyki Polskiej w otwartym dostępie}
!!!ONB-nifc: UWAGA: Introitus Secundi officii od str. 5. części: 1. Rorate caeli (Rorate caeli + Benedixisti + Gloria patri), 2. Kyrie, 3. Et in terra, 4. Tollite portas, 5. Alleluia, 6. Mittit ad virginem, 7. Ave Maria, 8. Sanctus, 9. Agnus Dei, 10. Ecce virgo
!!!AIN: 1 tenor
!!!key:
**kern	**text
*Itenor	*
*I"[Tenore]	*
*I'[T]	*
*clefC4	*
*k[]	*
*d:	*
*M2/1	*
*met(C)	*
=1-	=1-
1D	Ec-
1C	-ce
=2-	=2-
*lig	*
1F	.
1E	.
*Xlig	*
=3-	=3-
1F	Vir-
!LO:TX:t=P:global:problem=rozdzielacz słów	!
1D,<	-go
=4-	=4-
*lig	*
!LO:TX:t=P:problem=ligatura 0F-0G poprawiona na 0D-0E	!
1D	con-
1E	.
*Xlig	*
=5-	=5-
*lig	*
1G	-ci-
1A	.
*Xlig	*
=6-	=6-
1G	-pi-
1F,<	.
=7-	=7-
*lig	*
1F	-et
1E	.
*Xlig	*
=8-	=8-
*lig	*
1F	.
1D,<	.
*Xlig	*
=9-	=9-
*lig	*
1D	et
1E	.
*Xlig	*
=10-	=10-
*lig	*
1G	pa-
1A	.
*Xlig	*
=11-	=11-
*lig	*
1c	.
1d	.
*Xlig	*
=12-	=12-
*custos:G	*
1A	.
!LO:LB:g=original	!
*lig	*
1G	-ri-
=13-	=13-
1A	.
*Xlig	*
1A,<	-et
=14-	=14-
1A	Fi-
*lig	*
1A	-li-
=15-	=15-
1B	.
*Xlig	*
*lig	*
1c	.
=16-	=16-
1A	.
*Xlig	*
1A	-um
=17-	=17-
1G,<	et
1B	Vo-
=18-	=18-
1c	.
*lig	*
1A	-ca-
=19-	=19-
1G	.
*Xlig	*
*lig	*
1c	.
=20-	=20-
1A	.
*Xlig	*
1c	-bi-
=21-	=21-
1G	-tur
*lig	*
1A	.
=22-	=22-
1B	.
*Xlig	*
*lig	*
1c	.
=23-	=23-
1A,<	.
*Xlig	*
1F	no-
=24-	=24-
1F	-men
*custos:A	*
1G	e-
!LO:LB:g=original	!
=25-	=25-
*lig	*
1A	.
1B	.
*Xlig	*
=26-	=26-
1A	.
*lig	*
1A	-ius
=27-	=27-
1G	.
*Xlig	*
1F	E-
=28-	=28-
*lig	*
1G	.
1E	.
*Xlig	*
=29-	=29-
*lig	*
1F	.
1D	.
*Xlig	*
=30-	=30-
1D	-ma-
*lig	*
1F	.
=31-	=31-
1G	.
*Xlig	*
1A	.
=32-	=32-
1F	.
*lig	*
1E	.
=33-	=33-
1D	.
*Xlig	*
1C	-nu-
=34-	=34-
0Dl;;	-el.
==	==
*-	*-
!!!RDF**kern: < = below
!!!RDF**kern: l = terminal long
!!!ENC: Marta Lawrence
!!!END: 2021-03-28
!!!ENC: Katarzyna Serwa
!!!END: 2021-03-15
